X: 1
T: Queen Of May, The
M: 4/4
L: 1/8
R: hornpipe
K: Gmaj
Bc|dBcA Ggfg|(3efg (3cde d2 dc|Bdgf gdBG|(3FGA (3GFE DBcA|
dBcA Ggfg| (3efg (3cde d2 dc|Bdga bgaf|(3gag fa g2:|
|:cB|ADFA GBdg|eceg fdfa|gabg afge|(3fga (3gfe d2 (3def|
gbgb fafa|egeg fefd|cAce dBGB|ADFA G2:|
